**kern	**kern	**dynam
*part1	*part1	*part1
*staff2	*staff1	*
*I"Piano	*	*
*clefF4	*clefG2	*
*k[b-e-a-d-]	*k[b-e-a-d-]	*
=1	=1	=1
4BBn' 4Bn	4a-' 4ddn 4ff	.
4C' 4c	4f' 4a- 4cc	.
4CC' 4C	4g 4b- 4een	.
=	=	=
4FF 4F	4r	ff
4A- 4c	8a-L 8ff	.
.	8fJ	.
4FF 4F	4a- 4ff	.
=	=	=
4EE- 4E-	4r	.
4A- 4c	8a-L 8ff	.
.	8fJ	.
4EE- 4E-	4a- 4ff	.
=	=	=
4DD- 4D-	4r	.
4A- 4c	8a-L 8ff	.
.	8fJ	.
4DD- 4D-	4a- 4ff	.
=	=	=
4CC 4C	4r	.
4A- 4c	8a-L 8ff	.
.	8fJ	.
4CC 4C	4a- 4ff	.
=	=	=
4FF	4r	.
!	!LO:TX:b:i:t=dim.	!
4AA- 4C	8cL 8f	.
.	8A-J	.
4FF	4c 4f	.
=	=	=
4EE-	4r	.
4FF 4AA-	8cL 8f	.
.	8A-J	.
4EE-	4c 4f	.
=	=	=
*-	*-	*-
!!!system-decoration: {(s1,s2)}
